!!!OTL: Der heimkehrende Soldat Brave soldat venant de guerre, coucou,
!!!ARE: Europa, Mitteleuropa, France
!!!YOR: 5, S. 158
!!    1887 gedruckt
!!!SCT: Q2103B
!!!YEM: Copyright 1995, estate of Helmut Schaffrath.
**kern
*ICvox
*Ivox
!! Mixed meters:  6/8; 3/8
*M6/8
*k[f#]
*G:
{8d
=1
4g
8g
4g
8b
=2
4a
8g
8a
8b
8cc
=3
[4.b
8b]
8r}
{8d
=4
4g
8g
4g
8b
=5
4a
8g
8a
8b
8cc
=6
*M3/8
4.b}
=7
{8a
8b
8cc
=8
*M6/8
4dd
8dd
4cc
8b
=9
*M3/8
4.a}
=10
{8g
8a
8b
=11
*M6/8
4cc
8a
8a
8dd
8dd
=12
*M3/8
8g
8r}
{8b
=13
*M6/8
4g
8b
8a
8b
8a
=14
*M3/8
4.g}
=15
{8a
8b
8cc
=16
*M6/8
4dd
8dd
4cc
8b
=17
*M3/8
4.a}
=18
{8g
8a
8b
=19
*M6/8
4cc
8a
8a
8dd
8dd
=20
*M3/8
8g
8r}
{8b
=21
*M6/8
4g
8b
8a
8b
8a
=22
4g}
==
!!!AGN: Ballade, Ehe, Betrug
!! Franzoesische Fassung der Ballade. Taktart zum Taktwechsel
!!    korrigiert. Anhaengsel an der ersten und zweiten Zeile; letzte
!!    Zeile = Refrain auf sinnfreie Silben.
!!!ONB: ESAC (Essen Associative Code) Database: BALLADE
!!!AMT: irregular
!!!AIN: vox
!!!EED: Helmut Schaffrath
!!!EEV: 1.0
*-
